X:1
T:Marche.
T:03- Marche.
T:Helm 1/3 (BWV Anh. 124)
T:Carl Philipp Emmanuel Bach
T:in G Major
T:4 Pieces for Anna Magdalena Bach
C:Helm 1/3 (BWV Anh. 124)
%%score { ( 1 2 ) | 3 }
L:1/8
M:2/2
K:G
V:1 treble nm="Piano" snm="Pno."
V:2 treble 
V:3 bass 
V:1
 x4 z fge | d x4 dec | B x7 | agfe d2 c2 | BGGg gGGg | g^ccg gAAg | f2 ed T^c3 d | dAAF FAAF | %8
 D8 :: dAAA dFFF | dDDD DEFG | AGAB =cBcd |{c} B2 AB Gdef | gddd gBBB | gGGG GABc | dcde =fefg | %16
{=f} e2 de cBcd | eccA Affg | dBBG Gffg | c2 BA TA3 G | GDDB, B,DDB, | G,8 :| %22
V:2
 dGGG G ABc | B GGG G BcA | GGBd gd (ga/b/) | x8 | x8 | x8 | x8 | x8 | x8 :: x8 | x8 | x8 | x8 | %13
 x8 | x8 | x8 | x8 | x8 | x8 | x8 | x8 | x8 :| %22
V:3
 z G,,G,,G,,G,, z z2 | z G,,G,,G,,G,, z z2 | z2 G,,2 B,,2 G,,2 | D,2 E,2 F,2 D,2 | G,2 G,,4 F,2 | %5
 E,2 A,,4 ^C,2 | D,2 F,2 A,2 A,,2 | D,A,A,F, F,A,A,F, | D,8 :: D,,2 D,,2 D,,2 D,,2 | %10
 D,,D,,D,,D,, D,,2 E,,2 | F,,2 D,,4 E,,F,, | G,,2 D,2 G,2 D,2 | G,,2 G,,2 G,,2 G,,2 | %14
 G,,G,,G,,G,, G,,2 A,,2 | B,,2 G,,4 A,,B,, | C,2 G,2 C2 G,2 | C,4 z2 C,2 | B,,4 z2 B,,2 | %19
 A,,2 G,,2 D,2 D,,2 | G,,D,D,B,, B,,D,D,B,, | G,,8 :| %22

